X: 1
T: Jock Broon's 70th
C: Gordon Duncan
O: as played by Adam Sutherland
N: Boston Harbor Scottish Fiddle School, August 2012
R: reel
Z: 2019 John Chambers <jc:trillian.mit.edu>
M: 2/4
L: 1/16
K: Amix 	% ending on D
cd |\
e4 efed | cA A/A/A cAeA | {f}g4 {a}gfga | {e}f4 {g}fefg |
aeed e2ed | cA A/A/A eAcA | GA A/A/A d2dA | GAde d2 :|
|: cd |\
a2cd ecde | cdac decd | a2cd ecde | cdac dg g/g/g |
a2cd ecde | cdac decA | GA A/A/A d2dA | GAde d2 :|
|: dc |\
A2GA AGA2 | GAAG A2dc | A2GA AGA2 | GAde d2dc |
A2GA AGA2 | GAAG A2dA | GAde d3A | dcde d2 :|
